epam-assets/icon-sources/18/file-file_excel.svg

<svg xmlns="http://www.w3.org/2000/svg" width="18" height="18" fill="none" viewBox="0 0 18 18">
  <path fill="#6C6F80" fill-rule="evenodd" d="M10.5 1.5h-6A1.5 1.5 0 0 0 3 3v12a1.5 1.5 0 0 0 1.5 1.5h9A1.5 1.5 0 0 0 15 15V6l-4.5-4.5ZM11.85 15H10.5L9 12.45 7.5 15H6.15l2.175-3.375L6.15 8.25H7.5L9 10.8l1.5-2.55h1.35l-2.175 3.375L11.85 15Zm-2.1-8.25V2.625l4.125 4.125H9.75Z" clip-rule="evenodd"/>
</svg>

<svg width="18" height="18" viewBox="0 0 18 18" fill="none" xmlns="http://www.w3.org/2000/svg">
<g id="18/file-file_excel">
<path id="icon" fill-rule="evenodd" clip-rule="evenodd" d="M10.5 1.5H4.5C3.67157 1.5 3 2.17157 3 3V15C3 15.8284 3.67157 16.5 4.5 16.5H13.5C14.3284 16.5 15 15.8284 15 15V6L10.5 1.5ZM11.85 15H10.5L9 12.45L7.5 15H6.15L8.325 11.625L6.15 8.25H7.5L9 10.8L10.5 8.25H11.85L9.675 11.625L11.85 15ZM9.75 6.75V2.625L13.875 6.75H9.75Z" fill="#6C6F80"/>
</g>
</svg>
